!!!SOCIAL_FUNCTION: stomp dance songs
!!!PDT:	1943
!!!LING_GROUP: Muskogean
!!!LANG: Non-Tone
Specific Region: Oklahoma, California, Mississippi, Louisiana, Texas, Alabama
!!!REG: Southeast
!!!COM: Anon.
!!!OTL: Stomp Dance Song (f)
!!!ODT: <1933//
!!!MPN: Lapintabeseihoke [Kills it Himself, Sidney Wesley]
!!!MLC: Philadelphia, Mississippi, United States of America
!! Song was recorded in January 1933.
!!!AGN: monody
!!!AMT: irregular; simple septuple
!!!RWG: Transcribed pitches, durations, and meters are only approximate.
**kern
*ICvox
*Imale
*clefF4
*k[b-e-]
*M3/4
*MM138
=1-
8B-
8B-
8F
8F
4B-
*M2/4
=
4B-
8B-
8B-
=
4B-
4r
*M3/4
=
8B-
8B-
8F
8F
4B-
*M2/4
=
4c
8c
8B-
=
4B-
4r
*M3/4
=
8B-
8B-
8F
8F
8.B-
16B-
*M2/4
=
4..d
16d
=
2d
*M3/4
=
8c
8c
4B-
8c
16r
16d
*M2/4
=
4.c
8B-
=
4B-
4r
*M3/4
=
8B-
8B-
8F
8F
4B-
*M2/4
=
4c
8c
8B-
=
4B-
4r
*M3/4
=
8B-
8B-
8F
8F
4B-
*M2/4
=
8B-
8B-
8B-
8B-
=
4B-
4r
*M3/4
=
8B-
8B-
8F
8F
4B-
*M2/4
=
8c
8c
8c
8B-
=
4B-
4r
*M3/4
=
8B-
8B-
8F
8F
8.B-
16b-
*M2/4
=
2d
=
4.d
8c
*M3/4
=
8c
[8B-
4B-]
8c
16r
16d
*M24
=
2c
=
4.B-
8r
*M3/4
=
8B-
8B-
8F
8F
4B-
*M2/4
=
4d
8b-
8c
=
4.B-
8r
*M3/4
=
8B-
8B-
8F
8F
4B-
*M2/4
=
4c
8c
8B-
=
4B-
4r
*M3/4
=
8B-
8B-
8F
8F
8.B-
16B-
*M2/4
=
4B-
4r
=
4B-
4r
==
*-
!!!CNT: Choctaw
!!!TXO: Choctaw
!!!OCY: United States
!!!OCL: Frances Densmore
!!!YOR: Frances Densmore, "Choctaw Music"
!!!YOR: Bulletin 136, page 166, No. 49
!!!PPR: Smithsonian Institution, Bureau of American Ethnology
!!!PPR: Government Printing Office
!!!PDT: 1943
!!!PPP: Washington, DC, United States of America
!!!YEC: Electronic Copyright 2000 David Huron
!!!YER: August 2000
!!!YEN: United States of America
!!!ENC: David Huron
!!!RDT: August 29, 2000
!!!EEV: Release 1.0
!!!AIN: vox
